!!!ONB: MCCC : IJB0068_07 : Extracted Monophonic Melody
!!!COM: Bach, Johann Sebastian
!!!OPR: Cello Suite No.6
!!!OMV: 7
!!!SCT: BWV 1012
!!!ODT: 1717///
**kern
*thru
*staff1
*IP1
*clefF4
*k[f#c#]
*D:
*M6/8
*>A
8a
=1
4.d
8e
8f#
8g
=2
8f#
8d
8a
16a
16g
16f#
16g
8a
=3
8d
8A
8d
8e
8f#
8g
=4
8f#
8d
8A
4D
8a
=5
8f#
8A
8a
8e
8A
8g
=6
8d
8A
8f#
8e
8A
8g
=7
8f#
8A
8a
8e
8A
8g
=8
8d
8A
8f#
8c#
8A
8e
=9
8f#
8e
8f#
16B
16c#
8d
8B
=10
16G#
16F#
16G#
16A
8B
8E
16D
16C#
16D
16BB
=11
8e
8d
8e
16A
16B
16c#
16B
16A
16G
=12
16F#
16E
16F#
16G
16A
16F#
16D
16F#
16G#
16A
16B
16c#
=13
8d
8c#
8d
16f#
16g#
8a
8f#
=14
8d
8c#
8d
16B
16c#
16d
16B
16c#
16d
=15
16GG#
16BB
16E
16G#
16B
16d
16b
16a
16g#
16a
16b
16e
=16
8d
8c#
8d
4d
8e
=17
4.A
8B
8c#
8d
=18
8c#
8A
8e
16e
16d
16c#
16d
8e
=19
8A
8E
8A
8B
8c#
8d
=20
8c#
8A
8E
4AA
8A
=21
8e
8e
8e
16B
16A
16B
16c#
8d
=22
8g#
8g#
8g#
16E
16D
16E
16F#
8G#
=23
16G#
16F#
16G#
16A
8B
16B
16A
16B
16c#
8d
=24
16b
16g#
16b
16g#
16b
16g#
16e
16B
16e
16B
16e
16B
=25
16a
16e
16a
16e
16a
16e
16e
16A
16e
16A
16e
16A
=26
16A
16D
16A
16D
16A
16D
16D
16GG#
16D
16GG#
16D
16GG#
=27
16CC#
16e
16d
16c#
16B
16A
16E
16d
16c#
16B
16A
16G#
=28
16AA
16E
16A
16c#
16e
16g#
4a
*>A
8a
=1
4.d
8e
8f#
8g
=2
8f#
8d
8a
16a
16g
16f#
16g
8a
=3
8d
8A
8d
8e
8f#
8g
=4
8f#
8d
8A
4D
8a
=5
8f#
8A
8a
8e
8A
8g
=6
8d
8A
8f#
8e
8A
8g
=7
8f#
8A
8a
8e
8A
8g
=8
8d
8A
8f#
8c#
8A
8e
=9
8f#
8e
8f#
16B
16c#
8d
8B
=10
16G#
16F#
16G#
16A
8B
8E
16D
16C#
16D
16BB
=11
8e
8d
8e
16A
16B
16c#
16B
16A
16G
=12
16F#
16E
16F#
16G
16A
16F#
16D
16F#
16G#
16A
16B
16c#
=13
8d
8c#
8d
16f#
16g#
8a
8f#
=14
8d
8c#
8d
16B
16c#
16d
16B
16c#
16d
=15
16GG#
16BB
16E
16G#
16B
16d
16b
16a
16g#
16a
16b
16e
=16
8d
8c#
8d
4d
8e
=17
4.A
8B
8c#
8d
=18
8c#
8A
8e
16e
16d
16c#
16d
8e
=19
8A
8E
8A
8B
8c#
8d
=20
8c#
8A
8E
4AA
8A
=21
8e
8e
8e
16B
16A
16B
16c#
8d
=22
8g#
8g#
8g#
16E
16D
16E
16F#
8G#
=23
16G#
16F#
16G#
16A
8B
16B
16A
16B
16c#
8d
=24
16b
16g#
16b
16g#
16b
16g#
16e
16B
16e
16B
16e
16B
=25
16a
16e
16a
16e
16a
16e
16e
16A
16e
16A
16e
16A
=26
16A
16D
16A
16D
16A
16D
16D
16GG#
16D
16GG#
16D
16GG#
=27
16CC#
16e
16d
16c#
16B
16A
16E
16d
16c#
16B
16A
16G#
=28
16AA
16E
16A
16c#
16e
16g#
4a
*>B
8e
=29
4e
16f#
16g
8f#
8e
8d
=30
8d
8A#
8g
8e
16A#
16B
16c#
16B
=31
16c#
16d
16c#
16d
16e
16f#
8g
8f#
8e
=32
8d
8B
8F#
4BB
8d
=33
16g
16f#
16e
16d
16c
16B
8c
8E
8g
=34
16f#
16e
16d
16c#
16B
16A#
8B
8D
8f#
=35
8GG
16b
16a
16g
16f#
16e
16d
16c#
16d
16e
16d
=36
16c#
16B
16A#
16B
16c#
16A#
4F#
8f#
=37
8d
8F#
8f#
8c#
8F#
8e
=38
8B
8F#
8d
8c#
8F#
8e
=39
8d
8F#
8f#
8c#
8F#
8e
=40
8B
8F#
8d
8c#
8F#
8f#
=41
16g
16f#
16e
16f#
8g
8a#
8b
8e
=42
16f#
16e
16d
16e
8f#
8a#
8b
8d
=43
16c#
16d
16e
16f#
16g
16B
8F#
8B
8A#
=44
8B
16F#
16E
16D
16C#
8BB
8d
8AA
=45
8GG#
8d
8FF#
8EE
16e
16d
16c#
16B
=46
8c#
16A
16B
16c#
16d
16e
16f#
16g#
16a
16b
16d
=47
8E#
8c#
8b
8C#
16b
16a
16b
16g#
=48
16a
16f#
16c#
16B
16A
16G#
16F#
16G#
16A
16B
16c#
16d
=49
16e
16f#
8g
8C#
8AA
16a
16g
16f#
16e
=50
8f#
16D
16C
16BB
16AA
16GG
16D
16E
16F#
16G
16A
=51
16B
16d
16e
16f#
16g
16a
16b
16cc#
16dd
16cc#
16b
16a
=52
16g
16f#
16e
16d
16c#
16B
4A
8A
=53
4.d
16F#
16E
16F#
16G
8A
=54
4.A
16D
16C#
16D
16E
8F#
=55
16F#
16E
16F#
16G
8A
8A
16B
16A
16G
16A
=56
16F#
16AA
16BB
16C#
16D
16E
16F#
16G
16A
16B
16c
16d
=57
8B
8A
8B
16E
16F#
8G
8E
=58
16C#
16BB
16C#
16D
8E
8AA
16GG
16FF#
16GG
16EE
=59
8FF#
16A
16G
16F#
16E
16D
16E
16F#
16E
16D
16C#
=60
16BB
16AA
16BB
16C#
16D
16BB
16GG
16BB
16C#
16D
16E
16F#
=61
8G
8F#
8G
16B
16c#
8d
8B
=62
8G
8F#
8G
16E
16F#
16G
16E
16F#
16G
=63
16CC#
16EE
16AA
16C#
16E
16G
16e
16d
16c#
16d
16e
16A
=64
16g
16f#
16e
16f#
16g
16e
16cc#
16b
16a
16b
16cc#
16a
=65
16dd
16a
16dd
16a
16dd
16a
16a
16d
16a
16d
16a
16d
=66
16d
16G
16d
16G
16d
16G
16G
16C#
16G
16C#
16G
16C#
=67
16FF#
16a
16g
16f#
16e
16d
16A
16g
16f#
16e
16d
16c#
=68
16d
16A
16F#
16D
16AA
16FF#
4DD
*>B
8e
=29
4e
16f#
16g
8f#
8e
8d
=30
8d
8A#
8g
8e
16A#
16B
16c#
16B
=31
16c#
16d
16c#
16d
16e
16f#
8g
8f#
8e
=32
8d
8B
8F#
4BB
8d
=33
16g
16f#
16e
16d
16c
16B
8c
8E
8g
=34
16f#
16e
16d
16c#
16B
16A#
8B
8D
8f#
=35
8GG
16b
16a
16g
16f#
16e
16d
16c#
16d
16e
16d
=36
16c#
16B
16A#
16B
16c#
16A#
4F#
8f#
=37
8d
8F#
8f#
8c#
8F#
8e
=38
8B
8F#
8d
8c#
8F#
8e
=39
8d
8F#
8f#
8c#
8F#
8e
=40
8B
8F#
8d
8c#
8F#
8f#
=41
16g
16f#
16e
16f#
8g
8a#
8b
8e
=42
16f#
16e
16d
16e
8f#
8a#
8b
8d
=43
16c#
16d
16e
16f#
16g
16B
8F#
8B
8A#
=44
8B
16F#
16E
16D
16C#
8BB
8d
8AA
=45
8GG#
8d
8FF#
8EE
16e
16d
16c#
16B
=46
8c#
16A
16B
16c#
16d
16e
16f#
16g#
16a
16b
16d
=47
8E#
8c#
8b
8C#
16b
16a
16b
16g#
=48
16a
16f#
16c#
16B
16A
16G#
16F#
16G#
16A
16B
16c#
16d
=49
16e
16f#
8g
8C#
8AA
16a
16g
16f#
16e
=50
8f#
16D
16C
16BB
16AA
16GG
16D
16E
16F#
16G
16A
=51
16B
16d
16e
16f#
16g
16a
16b
16cc#
16dd
16cc#
16b
16a
=52
16g
16f#
16e
16d
16c#
16B
4A
8A
=53
4.d
16F#
16E
16F#
16G
8A
=54
4.A
16D
16C#
16D
16E
8F#
=55
16F#
16E
16F#
16G
8A
8A
16B
16A
16G
16A
=56
16F#
16AA
16BB
16C#
16D
16E
16F#
16G
16A
16B
16c
16d
=57
8B
8A
8B
16E
16F#
8G
8E
=58
16C#
16BB
16C#
16D
8E
8AA
16GG
16FF#
16GG
16EE
=59
8FF#
16A
16G
16F#
16E
16D
16E
16F#
16E
16D
16C#
=60
16BB
16AA
16BB
16C#
16D
16BB
16GG
16BB
16C#
16D
16E
16F#
=61
8G
8F#
8G
16B
16c#
8d
8B
=62
8G
8F#
8G
16E
16F#
16G
16E
16F#
16G
=63
16CC#
16EE
16AA
16C#
16E
16G
16e
16d
16c#
16d
16e
16A
=64
16g
16f#
16e
16f#
16g
16e
16cc#
16b
16a
16b
16cc#
16a
=65
16dd
16a
16dd
16a
16dd
16a
16a
16d
16a
16d
16a
16d
=66
16d
16G
16d
16G
16d
16G
16G
16C#
16G
16C#
16G
16C#
=67
16FF#
16a
16g
16f#
16e
16d
16A
16g
16f#
16e
16d
16c#
=68
16d
16A
16F#
16D
16AA
16FF#
4DD
==
*-
